%
(GRBLLOGO)
(T2  D=1.588 CR=0. - ZMIN=-0.2 - FLAT END MILL)
N10 G90 G94 G17 G91.1
N15 G21
N20 G53 G0 Z15.
(2D CONTOUR1)
N25 T2 M6
N30 S10000 M3
N35 G54
N40 M8
N45 G0 X45.207 Y14.875
N50 G43 Z15. H2
N55 G0 Z5.
N60 G1 Z1. F150.
N65 Z-0.2
N70 X45.102 Y15.313 F300.
N75 X45.005 Y15.882
N80 X44.946 Y16.462
N85 X44.931 Y16.756
N90 X44.926 Y17.053
N95 Y19.344
N100 X44.931 Y19.641
N105 X44.946 Y19.935
N110 X45.005 Y20.515
N115 X45.102 Y21.084
N120 X45.235 Y21.639
N125 X45.404 Y22.18
N130 X45.606 Y22.705
N135 X45.841 Y23.213
N140 X46.108 Y23.703
N145 X46.404 Y24.173
N150 X46.73 Y24.622
N155 X47.082 Y25.049
N160 X47.461 Y25.452
N165 X47.865 Y25.831
N170 X48.292 Y26.184
N175 X48.741 Y26.509
N180 X49.211 Y26.805
N185 X49.701 Y27.071
N190 X50.209 Y27.307
N195 X50.735 Y27.509
N200 X51.276 Y27.678
N205 X51.831 Y27.811
N210 X52.399 Y27.908
N215 X52.979 Y27.967
N220 X53.274 Y27.982
N225 X53.57 Y27.987
N230 X56.459
N235 X57.941 Y26.598
N240 X56.459 Y25.209
N245 X53.57
N250 X53.165 Y25.196
N255 X52.767 Y25.156
N260 X52.378 Y25.091
N265 X51.999 Y25.002
N270 X51.63 Y24.889
N275 X51.272 Y24.753
N280 X50.927 Y24.595
N285 X50.594 Y24.416
N290 X50.276 Y24.217
N295 X49.971 Y23.998
N300 X49.682 Y23.76
N305 X49.409 Y23.504
N310 X49.154 Y23.232
N315 X48.916 Y22.943
N320 X48.697 Y22.639
N325 X48.497 Y22.32
N330 X48.318 Y21.987
N335 X48.16 Y21.642
N340 X48.024 Y21.284
N345 X47.911 Y20.915
N350 X47.822 Y20.536
N355 X47.757 Y20.147
N360 X47.717 Y19.75
N365 X47.704 Y19.344
N370 Y17.053
N375 X47.717 Y16.647
N380 X47.757 Y16.25
N385 X47.822 Y15.861
N390 X47.911 Y15.481
N395 X48.024 Y15.113
N400 X48.16 Y14.755
N405 X48.318 Y14.41
N410 X48.497 Y14.077
N415 X48.697 Y13.758
N420 X48.916 Y13.454
N425 X49.154 Y13.165
N430 X49.409 Y12.892
N435 X49.682 Y12.636
N440 X49.971 Y12.399
N445 X50.276 Y12.18
N450 X50.594 Y11.98
N455 X50.927 Y11.801
N460 X51.272 Y11.643
N465 X51.63 Y11.507
N470 X51.999 Y11.394
N475 X52.378 Y11.304
N480 X52.767 Y11.24
N485 X53.165 Y11.2
N490 X53.57 Y11.187
N495 X56.816
N500 Y8.408
N505 X53.57
N510 X53.274 Y8.413
N515 X52.979 Y8.428
N520 X52.399 Y8.488
N525 X51.831 Y8.584
N530 X51.276 Y8.718
N535 X50.735 Y8.887
N540 X50.209 Y9.089
N545 X49.701 Y9.324
N550 X49.211 Y9.591
N555 X48.741 Y9.887
N560 X48.292 Y10.212
N565 X47.865 Y10.565
N570 X47.461 Y10.944
N575 X47.082 Y11.347
N580 X46.73 Y11.774
N585 X46.404 Y12.224
N590 X46.108 Y12.694
N595 X45.841 Y13.184
N600 X45.606 Y13.692
N605 X45.404 Y14.217
N610 X45.235 Y14.758
N615 X45.207 Y14.875
N620 G0 Z5.
N625 X40.521 Y13.451
N630 G1 Z1. F150.
N635 Z-0.2
N640 X40.487 Y13.548 F300.
N645 X40.456 Y13.653
N650 X40.429 Y13.768
N655 X40.404 Y13.898
N660 X40.383 Y14.045
N665 X40.364 Y14.212
N670 X40.348 Y14.403
N675 X40.334 Y14.62
N680 X40.322 Y14.867
N685 X40.312 Y15.147
N690 X40.303 Y15.462
N695 X40.297 Y15.817
N700 X40.292 Y16.213
N705 X40.288 Y16.655
N710 X40.285 Y17.145
N715 X40.283 Y17.687
N720 X40.282 Y18.283
N725 X40.281 Y18.936
N730 Y19.651
N735 Y20.429
N740 X40.282 Y26.974
N745 X39.859 Y27.465
N750 X39.824 Y27.504
N755 X39.788 Y27.542
N760 X39.751 Y27.578
N765 X39.713 Y27.612
N770 X39.674 Y27.645
N775 X39.634 Y27.676
N780 X39.594 Y27.706
N785 X39.552 Y27.734
N790 X39.51 Y27.76
N795 X39.467 Y27.785
N800 X39.423 Y27.809
N805 X39.379 Y27.831
N810 X39.334 Y27.851
N815 X39.288 Y27.87
N820 X39.242 Y27.887
N825 X39.195 Y27.902
N830 X39.148 Y27.916
N835 X39.101 Y27.929
N840 X39.054 Y27.94
N845 X39.006 Y27.949
N850 X38.957 Y27.957
N855 X38.909 Y27.963
N860 X38.861 Y27.967
N865 X38.812 Y27.97
N870 X38.763 Y27.972
N875 X38.715 Y27.971
N880 X38.666 Y27.97
N885 X38.617 Y27.966
N890 X38.569 Y27.961
N895 X38.521 Y27.955
N900 X38.473 Y27.946
N905 X38.425 Y27.937
N910 X38.378 Y27.925
N915 X38.331 Y27.912
N920 X38.284 Y27.897
N925 X38.238 Y27.881
N930 X38.192 Y27.863
N935 X38.147 Y27.844
N940 X38.102 Y27.823
N945 X38.059 Y27.8
N950 X38.015 Y27.776
N955 X37.973 Y27.75
N960 X37.931 Y27.722
N965 X37.89 Y27.693
N970 X37.85 Y27.662
N975 X37.811 Y27.629
N980 X37.773 Y27.595
N985 X37.736 Y27.559
N990 X37.339 Y27.162
N995 Y20.166
N1000 X37.34 Y19.695
N1005 X37.341 Y19.239
N1010 X37.343 Y18.799
N1015 X37.344 Y18.375
N1020 X37.345 Y17.966
N1025 X37.346 Y17.573
N1030 X37.347 Y17.195
N1035 Y16.833
N1040 X37.348 Y16.487
N1045 Y16.157
N1050 Y15.842
N1055 Y15.542
N1060 Y15.259
N1065 Y14.991
N1070 Y14.738
N1075 X37.347 Y14.502
N1080 Y14.281
N1085 X37.346 Y14.075
N1090 X37.345 Y13.885
N1095 X37.344 Y13.711
N1100 X37.343 Y13.553
N1105 X37.341 Y13.41
N1110 X37.34 Y13.283
N1115 X37.339 Y13.171
N1120 X37.354 Y13.004
N1125 X37.383 Y12.836
N1130 X37.422 Y12.668
N1135 X37.472 Y12.5
N1140 X37.532 Y12.332
N1145 X37.601 Y12.165
N1150 X37.678 Y12.
N1155 X37.762 Y11.837
N1160 X37.853 Y11.676
N1165 X37.95 Y11.518
N1170 X38.053 Y11.363
N1175 X38.159 Y11.211
N1180 X38.269 Y11.064
N1185 X38.382 Y10.921
N1190 X38.496 Y10.784
N1195 X38.612 Y10.652
N1200 X38.728 Y10.525
N1205 X38.844 Y10.406
N1210 X38.959 Y10.293
N1215 X39.072 Y10.187
N1220 X39.182 Y10.089
N1225 X39.288 Y9.999
N1230 X39.391 Y9.917
N1235 X39.488 Y9.845
N1240 X39.599 Y9.776
N1245 X39.71 Y9.706
N1250 X39.82 Y9.635
N1255 X39.931 Y9.564
N1260 X40.043 Y9.492
N1265 X40.157 Y9.421
N1270 X40.273 Y9.35
N1275 X40.392 Y9.28
N1280 X40.515 Y9.21
N1285 X40.644 Y9.142
N1290 X40.777 Y9.076
N1295 X40.916 Y9.011
N1300 X41.062 Y8.949
N1305 X41.215 Y8.889
N1310 X41.377 Y8.831
N1315 X41.547 Y8.777
N1320 X41.727 Y8.725
N1325 X41.917 Y8.678
N1330 X42.118 Y8.634
N1335 X42.331 Y8.594
N1340 X42.556 Y8.559
N1345 X42.793 Y8.529
N1350 X43.045 Y8.503
N1355 X43.311 Y8.483
N1360 X43.355 Y8.518
N1365 X43.401 Y8.556
N1370 X43.449 Y8.595
N1375 X43.498 Y8.636
N1380 X43.549 Y8.68
N1385 X43.601 Y8.725
N1390 X43.655 Y8.772
N1395 X43.711 Y8.821
N1400 X43.768 Y8.872
N1405 X43.827 Y8.925
N1410 X43.887 Y8.98
N1415 X43.949 Y9.037
N1420 X44.012 Y9.096
N1425 X44.077 Y9.157
N1430 X44.144 Y9.22
N1435 X44.212 Y9.284
N1440 X44.282 Y9.351
N1445 X44.353 Y9.42
N1450 X44.426 Y9.49
N1455 X44.5 Y9.563
N1460 X44.576 Y9.637
N1465 X44.654 Y9.713
N1470 X44.733 Y9.792
N1475 X44.814 Y9.872
N1480 X44.732 Y9.956
N1485 X44.653 Y10.036
N1490 X44.577 Y10.112
N1495 X44.505 Y10.185
N1500 X44.435 Y10.255
N1505 X44.368 Y10.322
N1510 X44.304 Y10.386
N1515 X44.24 Y10.448
N1520 X44.179 Y10.509
N1525 X44.119 Y10.567
N1530 X44.06 Y10.625
N1535 X44.002 Y10.681
N1540 X43.944 Y10.737
N1545 X43.886 Y10.792
N1550 X43.828 Y10.847
N1555 X43.77 Y10.902
N1560 X43.711 Y10.958
N1565 X43.65 Y11.014
N1570 X43.589 Y11.072
N1575 X43.526 Y11.13
N1580 X43.461 Y11.191
N1585 X43.393 Y11.253
N1590 X43.323 Y11.318
N1595 X43.25 Y11.385
N1600 X43.125 Y11.398
N1605 X42.999 Y11.419
N1610 X42.872 Y11.446
N1615 X42.745 Y11.479
N1620 X42.617 Y11.52
N1625 X42.49 Y11.566
N1630 X42.364 Y11.617
N1635 X42.239 Y11.674
N1640 X42.116 Y11.737
N1645 X41.994 Y11.804
N1650 X41.875 Y11.875
N1655 X41.758 Y11.951
N1660 X41.644 Y12.031
N1665 X41.533 Y12.114
N1670 X41.426 Y12.201
N1675 X41.324 Y12.29
N1680 X41.225 Y12.383
N1685 X41.132 Y12.477
N1690 X41.044 Y12.574
N1695 X40.961 Y12.673
N1700 X40.884 Y12.774
N1705 X40.814 Y12.875
N1710 X40.75 Y12.978
N1715 X40.693 Y13.081
N1720 X40.644 Y13.177
N1725 X40.599 Y13.269
N1730 X40.558 Y13.359
N1735 X40.521 Y13.451
N1740 G0 Z5.
N1745 X35.74 Y14.081
N1750 G1 Z1. F150.
N1755 Z-0.2
N1760 X35.751 Y14.421 F300.
N1765 X35.738 Y14.814
N1770 X35.698 Y15.208
N1775 X35.632 Y15.603
N1780 X35.538 Y15.997
N1785 X35.417 Y16.389
N1790 X35.268 Y16.779
N1795 X35.09 Y17.164
N1800 X35.01 Y17.32
N1805 X34.926 Y17.472
N1810 X34.838 Y17.621
N1815 X34.746 Y17.766
N1820 X34.65 Y17.909
N1825 X34.551 Y18.048
N1830 X34.448 Y18.185
N1835 X34.341 Y18.317
N1840 X34.23 Y18.447
N1845 X34.116 Y18.573
N1850 X33.998 Y18.696
N1855 X33.877 Y18.816
N1860 X33.752 Y18.932
N1865 X33.623 Y19.045
N1870 X33.491 Y19.154
N1875 X33.356 Y19.26
N1880 X33.217 Y19.362
N1885 X33.074 Y19.461
N1890 X32.929 Y19.556
N1895 X32.78 Y19.648
N1900 X32.627 Y19.736
N1905 X32.472 Y19.82
N1910 X32.313 Y19.901
N1915 X32.151 Y19.978
N1920 X32.059 Y20.018
N1925 X31.968 Y20.057
N1930 X31.878 Y20.094
N1935 X31.787 Y20.129
N1940 X31.695 Y20.162
N1945 X31.603 Y20.193
N1950 X31.509 Y20.222
N1955 X31.413 Y20.249
N1960 X31.316 Y20.275
N1965 X31.215 Y20.299
N1970 X31.112 Y20.322
N1975 X31.005 Y20.344
N1980 X30.895 Y20.364
N1985 X30.78 Y20.383
N1990 X30.661 Y20.4
N1995 X30.537 Y20.417
N2000 X30.408 Y20.433
N2005 X30.273 Y20.447
N2010 X30.132 Y20.461
N2015 X29.984 Y20.474
N2020 X29.829 Y20.486
N2025 X29.667 Y20.498
N2030 X29.498 Y20.509
N2035 X29.32 Y20.519
N2040 X27.44 Y20.626
N2045 Y17.54
N2050 X28.872
N2055 X29.069 Y17.538
N2060 X29.257 Y17.534
N2065 X29.436 Y17.528
N2070 X29.608 Y17.518
N2075 X29.772 Y17.505
N2080 X29.929 Y17.49
N2085 X30.079 Y17.471
N2090 X30.222 Y17.449
N2095 X30.36 Y17.423
N2100 X30.491 Y17.393
N2105 X30.617 Y17.36
N2110 X30.739 Y17.323
N2115 X30.855 Y17.282
N2120 X30.967 Y17.237
N2125 X31.075 Y17.188
N2130 X31.18 Y17.135
N2135 X31.281 Y17.076
N2140 X31.38 Y17.014
N2145 X31.476 Y16.947
N2150 X31.57 Y16.875
N2155 X31.662 Y16.798
N2160 X31.753 Y16.716
N2165 X31.843 Y16.629
N2170 X31.932 Y16.536
N2175 X32.043 Y16.411
N2180 X32.147 Y16.284
N2185 X32.243 Y16.153
N2190 X32.332 Y16.021
N2195 X32.412 Y15.885
N2200 X32.485 Y15.748
N2205 X32.55 Y15.608
N2210 X32.607 Y15.467
N2215 X32.656 Y15.324
N2220 X32.698 Y15.179
N2225 X32.731 Y15.033
N2230 X32.757 Y14.886
N2235 X32.775 Y14.738
N2240 X32.784 Y14.589
N2245 X32.786 Y14.439
N2250 X32.78 Y14.289
N2255 X32.765 Y14.139
N2260 X32.743 Y13.988
N2265 X32.713 Y13.837
N2270 X32.674 Y13.686
N2275 X32.627 Y13.536
N2280 X32.572 Y13.386
N2285 X32.509 Y13.237
N2290 X32.438 Y13.089
N2295 X32.366 Y12.953
N2300 X32.292 Y12.826
N2305 X32.216 Y12.705
N2310 X32.138 Y12.59
N2315 X32.057 Y12.483
N2320 X31.973 Y12.382
N2325 X31.886 Y12.288
N2330 X31.796 Y12.2
N2335 X31.702 Y12.119
N2340 X31.605 Y12.043
N2345 X31.503 Y11.974
N2350 X31.398 Y11.91
N2355 X31.288 Y11.853
N2360 X31.173 Y11.801
N2365 X31.054 Y11.754
N2370 X30.929 Y11.713
N2375 X30.8 Y11.677
N2380 X30.664 Y11.646
N2385 X30.524 Y11.621
N2390 X30.377 Y11.6
N2395 X30.224 Y11.584
N2400 X30.065 Y11.573
N2405 X29.899 Y11.566
N2410 X29.727 Y11.564
N2415 X29.57 Y11.566
N2420 X29.42 Y11.57
N2425 X29.278 Y11.577
N2430 X29.142 Y11.588
N2435 X29.012 Y11.602
N2440 X28.888 Y11.619
N2445 X28.77 Y11.641
N2450 X28.656 Y11.667
N2455 X28.548 Y11.697
N2460 X28.443 Y11.731
N2465 X28.342 Y11.77
N2470 X28.244 Y11.814
N2475 X28.15 Y11.863
N2480 X28.057 Y11.917
N2485 X27.967 Y11.977
N2490 X27.879 Y12.042
N2495 X27.792 Y12.113
N2500 X27.706 Y12.19
N2505 X27.62 Y12.274
N2510 X27.534 Y12.364
N2515 X27.448 Y12.46
N2520 X27.361 Y12.564
N2525 X27.273 Y12.674
N2530 X27.183 Y12.792
N2535 X27.14 Y12.85
N2540 X27.101 Y12.91
N2545 X27.066 Y12.973
N2550 X27.033 Y13.043
N2555 X27.002 Y13.122
N2560 X26.975 Y13.212
N2565 X26.95 Y13.317
N2570 X26.927 Y13.439
N2575 X26.906 Y13.581
N2580 X26.887 Y13.746
N2585 X26.87 Y13.936
N2590 X26.855 Y14.155
N2595 X26.84 Y14.404
N2600 X26.827 Y14.686
N2605 X26.815 Y15.005
N2610 X26.804 Y15.362
N2615 X26.794 Y15.761
N2620 X26.784 Y16.205
N2625 X26.775 Y16.695
N2630 X26.765 Y17.235
N2635 X26.756 Y17.827
N2640 X26.746 Y18.475
N2645 X26.737 Y19.181
N2650 X26.726 Y19.946
N2655 X26.637 Y26.608
N2660 X25.197 Y27.88
N2665 X25.093 Y27.792
N2670 X24.997 Y27.711
N2675 X24.909 Y27.635
N2680 X24.826 Y27.564
N2685 X24.75 Y27.498
N2690 X24.679 Y27.437
N2695 X24.613 Y27.38
N2700 X24.551 Y27.326
N2705 X24.493 Y27.274
N2710 X24.438 Y27.226
N2715 X24.386 Y27.18
N2720 X24.336 Y27.135
N2725 X24.287 Y27.091
N2730 X24.24 Y27.049
N2735 X24.192 Y27.006
N2740 X24.145 Y26.964
N2745 X24.097 Y26.92
N2750 X24.047 Y26.876
N2755 X23.996 Y26.83
N2760 X23.943 Y26.783
N2765 X23.886 Y26.733
N2770 X23.826 Y26.68
N2775 X23.762 Y26.623
N2780 X23.694 Y26.563
N2785 Y20.122
N2790 Y19.266
N2795 X23.695 Y18.477
N2800 X23.698 Y17.751
N2805 X23.702 Y17.084
N2810 X23.709 Y16.474
N2815 X23.718 Y15.917
N2820 X23.73 Y15.409
N2825 X23.746 Y14.947
N2830 X23.766 Y14.528
N2835 X23.79 Y14.148
N2840 X23.818 Y13.803
N2845 X23.852 Y13.49
N2850 X23.891 Y13.207
N2855 X23.936 Y12.948
N2860 X23.988 Y12.712
N2865 X24.047 Y12.494
N2870 X24.112 Y12.291
N2875 X24.186 Y12.099
N2880 X24.267 Y11.916
N2885 X24.357 Y11.738
N2890 X24.456 Y11.56
N2895 X24.564 Y11.381
N2900 X24.682 Y11.196
N2905 X24.81 Y11.002
N2910 X24.895 Y10.88
N2915 X24.986 Y10.759
N2920 X25.082 Y10.639
N2925 X25.185 Y10.521
N2930 X25.292 Y10.403
N2935 X25.404 Y10.287
N2940 X25.521 Y10.174
N2945 X25.642 Y10.062
N2950 X25.768 Y9.952
N2955 X25.897 Y9.844
N2960 X26.03 Y9.74
N2965 X26.166 Y9.638
N2970 X26.305 Y9.539
N2975 X26.447 Y9.443
N2980 X26.591 Y9.351
N2985 X26.738 Y9.263
N2990 X26.886 Y9.178
N2995 X27.036 Y9.098
N3000 X27.187 Y9.021
N3005 X27.339 Y8.95
N3010 X27.492 Y8.882
N3015 X27.645 Y8.82
N3020 X27.798 Y8.763
N3025 X27.951 Y8.711
N3030 X28.11 Y8.665
N3035 X28.275 Y8.623
N3040 X28.446 Y8.588
N3045 X28.622 Y8.557
N3050 X28.803 Y8.532
N3055 X28.987 Y8.513
N3060 X29.175 Y8.498
N3065 X29.366 Y8.49
N3070 X29.559 Y8.486
N3075 X29.753 Y8.488
N3080 X29.948 Y8.494
N3085 X30.144 Y8.506
N3090 X30.339 Y8.523
N3095 X30.533 Y8.545
N3100 X30.726 Y8.572
N3105 X30.916 Y8.604
N3110 X31.104 Y8.641
N3115 X31.288 Y8.683
N3120 X31.469 Y8.73
N3125 X31.645 Y8.781
N3130 X31.815 Y8.837
N3135 X31.98 Y8.898
N3140 X32.139 Y8.963
N3145 X32.29 Y9.033
N3150 X32.669 Y9.234
N3155 X33.029 Y9.455
N3160 X33.368 Y9.694
N3165 X33.685 Y9.951
N3170 X33.982 Y10.226
N3175 X34.257 Y10.515
N3180 X34.51 Y10.819
N3185 X34.741 Y11.137
N3190 X34.949 Y11.467
N3195 X35.134 Y11.808
N3200 X35.295 Y12.159
N3205 X35.433 Y12.52
N3210 X35.546 Y12.888
N3215 X35.635 Y13.264
N3220 X35.699 Y13.645
N3225 X35.738 Y14.031
N3230 X35.74 Y14.081
N3235 G0 Z5.
N3240 X21.161 Y17.534
N3245 G1 Z1. F150.
N3250 Z-0.2
N3255 X21.323 Y17.539 F300.
N3260 X21.534 Y17.541
N3265 X23.008
N3270 X22.949 Y19.013
N3275 X22.891 Y20.484
N3280 X21.099 Y20.464
N3285 X20.911 Y20.461
N3290 X20.734 Y20.458
N3295 X20.568 Y20.455
N3300 X20.412 Y20.45
N3305 X20.265 Y20.444
N3310 X20.126 Y20.437
N3315 X19.995 Y20.429
N3320 X19.871 Y20.419
N3325 X19.753 Y20.407
N3330 X19.64 Y20.394
N3335 X19.532 Y20.379
N3340 X19.428 Y20.362
N3345 X19.326 Y20.342
N3350 X19.228 Y20.321
N3355 X19.13 Y20.297
N3360 X19.034 Y20.27
N3365 X18.938 Y20.241
N3370 X18.841 Y20.209
N3375 X18.742 Y20.174
N3380 X18.642 Y20.136
N3385 X18.539 Y20.095
N3390 X18.431 Y20.05
N3395 X18.32 Y20.002
N3400 X18.204 Y19.95
N3405 X18.044 Y19.875
N3410 X17.884 Y19.793
N3415 X17.725 Y19.704
N3420 X17.567 Y19.61
N3425 X17.411 Y19.509
N3430 X17.256 Y19.403
N3435 X17.104 Y19.292
N3440 X16.953 Y19.176
N3445 X16.805 Y19.055
N3450 X16.659 Y18.929
N3455 X16.517 Y18.8
N3460 X16.378 Y18.666
N3465 X16.243 Y18.529
N3470 X16.111 Y18.389
N3475 X15.984 Y18.245
N3480 X15.862 Y18.099
N3485 X15.744 Y17.951
N3490 X15.631 Y17.8
N3495 X15.523 Y17.647
N3500 X15.421 Y17.493
N3505 X15.325 Y17.337
N3510 X15.235 Y17.18
N3515 X15.152 Y17.022
N3520 X15.076 Y16.864
N3525 X15.034 Y16.772
N3530 X14.995 Y16.681
N3535 X14.959 Y16.591
N3540 X14.926 Y16.501
N3545 X14.895 Y16.409
N3550 X14.867 Y16.313
N3555 X14.841 Y16.214
N3560 X14.817 Y16.109
N3565 X14.795 Y15.998
N3570 X14.776 Y15.878
N3575 X14.758 Y15.75
N3580 X14.741 Y15.61
N3585 X14.727 Y15.46
N3590 X14.713 Y15.296
N3595 X14.701 Y15.119
N3600 X14.69 Y14.926
N3605 X14.681 Y14.717
N3610 X14.672 Y14.489
N3615 X14.663 Y14.243
N3620 X14.656 Y13.977
N3625 X14.648 Y13.689
N3630 X14.642 Y13.379
N3635 X14.635 Y13.044
N3640 X14.628 Y12.685
N3645 X14.57 Y9.346
N3650 X14.633 Y9.281
N3655 X14.693 Y9.219
N3660 X14.75 Y9.16
N3665 X14.805 Y9.104
N3670 X14.859 Y9.051
N3675 X14.91 Y8.999
N3680 X14.961 Y8.949
N3685 X15.011 Y8.9
N3690 X15.061 Y8.851
N3695 X15.11 Y8.803
N3700 X15.161 Y8.755
N3705 X15.213 Y8.706
N3710 X15.266 Y8.656
N3715 X15.321 Y8.604
N3720 X15.378 Y8.551
N3725 X15.438 Y8.495
N3730 X15.501 Y8.437
N3735 X15.567 Y8.375
N3740 X15.638 Y8.31
N3745 X15.713 Y8.242
N3750 X15.793 Y8.168
N3755 X15.878 Y8.09
N3760 X15.968 Y8.007
N3765 X16.065 Y7.918
N3770 X17.54 Y9.305
N3775 X17.63 Y12.486
N3780 X17.64 Y12.84
N3785 X17.65 Y13.168
N3790 X17.659 Y13.47
N3795 X17.669 Y13.748
N3800 X17.679 Y14.004
N3805 X17.689 Y14.239
N3810 X17.7 Y14.453
N3815 X17.711 Y14.648
N3820 X17.723 Y14.826
N3825 X17.737 Y14.988
N3830 X17.751 Y15.134
N3835 X17.767 Y15.266
N3840 X17.784 Y15.386
N3845 X17.803 Y15.495
N3850 X17.824 Y15.593
N3855 X17.847 Y15.683
N3860 X17.872 Y15.765
N3865 X17.899 Y15.841
N3870 X17.929 Y15.911
N3875 X17.962 Y15.978
N3880 X17.997 Y16.043
N3885 X18.035 Y16.106
N3890 X18.077 Y16.169
N3895 X18.122 Y16.233
N3900 X18.204 Y16.344
N3905 X18.292 Y16.449
N3910 X18.383 Y16.55
N3915 X18.48 Y16.645
N3920 X18.58 Y16.735
N3925 X18.686 Y16.82
N3930 X18.796 Y16.9
N3935 X18.912 Y16.975
N3940 X19.032 Y17.046
N3945 X19.158 Y17.111
N3950 X19.289 Y17.172
N3955 X19.425 Y17.227
N3960 X19.568 Y17.278
N3965 X19.715 Y17.325
N3970 X19.869 Y17.367
N3975 X20.029 Y17.404
N3980 X20.194 Y17.436
N3985 X20.366 Y17.464
N3990 X20.544 Y17.488
N3995 X20.729 Y17.507
N4000 X20.92 Y17.522
N4005 X21.118 Y17.533
N4010 X21.161 Y17.534
N4015 G0 Z5.
N4020 X12.903 Y15.82
N4025 G1 Z1. F150.
N4030 Z-0.2
N4035 Y16.201 F300.
N4040 X12.406 Y17.144
N4045 X12.255 Y17.417
N4050 X12.093 Y17.678
N4055 X11.922 Y17.927
N4060 X11.742 Y18.165
N4065 X11.553 Y18.391
N4070 X11.357 Y18.605
N4075 X11.153 Y18.807
N4080 X10.941 Y18.998
N4085 X10.723 Y19.178
N4090 X10.498 Y19.345
N4095 X10.268 Y19.501
N4100 X10.032 Y19.645
N4105 X9.791 Y19.778
N4110 X9.546 Y19.899
N4115 X9.296 Y20.008
N4120 X9.042 Y20.106
N4125 X8.786 Y20.192
N4130 X8.526 Y20.266
N4135 X8.264 Y20.329
N4140 X8. Y20.38
N4145 X7.735 Y20.419
N4150 X7.468 Y20.447
N4155 X7.201 Y20.463
N4160 X6.933 Y20.468
N4165 X6.666 Y20.461
N4170 X6.399 Y20.442
N4175 X6.133 Y20.411
N4180 X5.869 Y20.369
N4185 X5.607 Y20.315
N4190 X5.347 Y20.25
N4195 X5.089 Y20.173
N4200 X4.836 Y20.085
N4205 X4.585 Y19.984
N4210 X4.339 Y19.873
N4215 X4.098 Y19.749
N4220 X3.861 Y19.614
N4225 X3.63 Y19.467
N4230 X3.404 Y19.309
N4235 X3.185 Y19.139
N4240 X2.973 Y18.958
N4245 X2.768 Y18.765
N4250 X2.57 Y18.56
N4255 X2.38 Y18.344
N4260 X2.199 Y18.116
N4265 X2.027 Y17.877
N4270 X1.864 Y17.625
N4275 X1.711 Y17.363
N4280 X1.568 Y17.089
N4285 X1.539 Y17.022
N4290 X1.508 Y16.954
N4295 X1.477 Y16.884
N4300 X1.446 Y16.811
N4305 X1.414 Y16.736
N4310 X1.382 Y16.658
N4315 X1.35 Y16.576
N4320 X1.318 Y16.49
N4325 X1.287 Y16.401
N4330 X1.256 Y16.307
N4335 X1.226 Y16.209
N4340 X1.197 Y16.105
N4345 X1.17 Y15.997
N4350 X1.143 Y15.883
N4355 X1.119 Y15.762
N4360 X1.096 Y15.636
N4365 X1.075 Y15.503
N4370 X1.056 Y15.364
N4375 X1.039 Y15.217
N4380 X1.026 Y15.063
N4385 X1.015 Y14.901
N4390 X1.007 Y14.731
N4395 X1.002 Y14.552
N4400 X1. Y14.365
N4405 X1.005 Y14.116
N4410 X1.018 Y13.877
N4415 X1.04 Y13.647
N4420 X1.07 Y13.426
N4425 X1.107 Y13.213
N4430 X1.151 Y13.009
N4435 X1.202 Y12.813
N4440 X1.259 Y12.624
N4445 X1.322 Y12.442
N4450 X1.391 Y12.267
N4455 X1.464 Y12.098
N4460 X1.542 Y11.935
N4465 X1.624 Y11.778
N4470 X1.71 Y11.626
N4475 X1.799 Y11.478
N4480 X1.891 Y11.335
N4485 X1.985 Y11.196
N4490 X2.082 Y11.06
N4495 X2.18 Y10.928
N4500 X2.279 Y10.799
N4505 X2.379 Y10.672
N4510 X2.479 Y10.547
N4515 X2.579 Y10.424
N4520 X2.679 Y10.302
N4525 X2.813 Y10.162
N4530 X2.949 Y10.027
N4535 X3.088 Y9.899
N4540 X3.231 Y9.776
N4545 X3.377 Y9.66
N4550 X3.526 Y9.549
N4555 X3.679 Y9.444
N4560 X3.835 Y9.345
N4565 X3.995 Y9.251
N4570 X4.159 Y9.163
N4575 X4.327 Y9.08
N4580 X4.499 Y9.003
N4585 X4.675 Y8.932
N4590 X4.856 Y8.866
N4595 X5.041 Y8.805
N4600 X5.23 Y8.749
N4605 X5.424 Y8.699
N4610 X5.623 Y8.654
N4615 X5.827 Y8.614
N4620 X6.036 Y8.58
N4625 X6.25 Y8.55
N4630 X6.47 Y8.525
N4635 X6.694 Y8.506
N4640 X6.924 Y8.491
N4645 X8.444 Y8.41
N4650 X8.478 Y8.449
N4655 X8.515 Y8.489
N4660 X8.554 Y8.532
N4665 X8.596 Y8.577
N4670 X8.64 Y8.623
N4675 X8.687 Y8.672
N4680 X8.737 Y8.723
N4685 X8.789 Y8.776
N4690 X8.843 Y8.831
N4695 X8.9 Y8.889
N4700 X8.959 Y8.948
N4705 X9.022 Y9.009
N4710 X9.086 Y9.073
N4715 X9.153 Y9.138
N4720 X9.223 Y9.206
N4725 X9.295 Y9.275
N4730 X9.37 Y9.347
N4735 X9.447 Y9.421
N4740 X9.527 Y9.497
N4745 X9.609 Y9.575
N4750 X9.694 Y9.655
N4755 X9.782 Y9.737
N4760 X9.871 Y9.821
N4765 X9.964 Y9.907
N4770 X9.855 Y10.015
N4775 X9.749 Y10.118
N4780 X9.647 Y10.218
N4785 X9.549 Y10.315
N4790 X9.455 Y10.407
N4795 X9.365 Y10.496
N4800 X9.278 Y10.581
N4805 X9.195 Y10.663
N4810 X9.116 Y10.741
N4815 X9.041 Y10.815
N4820 X8.97 Y10.885
N4825 X8.902 Y10.952
N4830 X8.838 Y11.015
N4835 X8.779 Y11.074
N4840 X8.722 Y11.13
N4845 X8.67 Y11.182
N4850 X8.622 Y11.23
N4855 X8.577 Y11.274
N4860 X8.536 Y11.315
N4865 X8.499 Y11.352
N4870 X8.465 Y11.386
N4875 X8.436 Y11.416
N4880 X8.41 Y11.442
N4885 X8.388 Y11.464
N4890 X8.352
N4895 X8.314
N4900 X8.273
N4905 X8.23
N4910 X8.185
N4915 X8.139 Y11.465
N4920 X8.092
N4925 X8.043
N4930 X7.994
N4935 X7.944 Y11.466
N4940 X7.894
N4945 X7.844 Y11.467
N4950 X7.794
N4955 X7.744 Y11.468
N4960 X7.695
N4965 X7.647 Y11.469
N4970 X7.601
N4975 X7.555 Y11.47
N4980 X7.512 Y11.471
N4985 X7.47 Y11.472
N4990 X7.431
N4995 X7.394 Y11.473
N5000 X7.36 Y11.474
N5005 X7.329 Y11.475
N5010 X7.17 Y11.48
N5015 X7.017 Y11.488
N5020 X6.872 Y11.498
N5025 X6.732 Y11.51
N5030 X6.598 Y11.526
N5035 X6.47 Y11.544
N5040 X6.347 Y11.565
N5045 X6.228 Y11.59
N5050 X6.114 Y11.618
N5055 X6.003 Y11.651
N5060 X5.896 Y11.687
N5065 X5.792 Y11.727
N5070 X5.691 Y11.772
N5075 X5.592 Y11.821
N5080 X5.495 Y11.876
N5085 X5.399 Y11.935
N5090 X5.305 Y11.999
N5095 X5.212 Y12.07
N5100 X5.119 Y12.145
N5105 X5.026 Y12.227
N5110 X4.933 Y12.315
N5115 X4.839 Y12.409
N5120 X4.744 Y12.51
N5125 X4.647 Y12.617
N5130 X4.497 Y12.803
N5135 X4.365 Y12.995
N5140 X4.252 Y13.193
N5145 X4.156 Y13.397
N5150 X4.078 Y13.604
N5155 X4.018 Y13.815
N5160 X3.975 Y14.029
N5165 X3.95 Y14.244
N5170 X3.941 Y14.46
N5175 X3.949 Y14.676
N5180 X3.974 Y14.891
N5185 X4.015 Y15.104
N5190 X4.073 Y15.314
N5195 X4.146 Y15.521
N5200 X4.236 Y15.723
N5205 X4.341 Y15.92
N5210 X4.461 Y16.111
N5215 X4.596 Y16.295
N5220 X4.747 Y16.471
N5225 X4.912 Y16.638
N5230 X5.092 Y16.795
N5235 X5.286 Y16.942
N5240 X5.494 Y17.078
N5245 X5.717 Y17.201
N5250 X5.82 Y17.252
N5255 X5.923 Y17.298
N5260 X6.027 Y17.34
N5265 X6.13 Y17.378
N5270 X6.233 Y17.411
N5275 X6.336 Y17.439
N5280 X6.439 Y17.464
N5285 X6.542 Y17.484
N5290 X6.645 Y17.499
N5295 X6.749 Y17.51
N5300 X6.853 Y17.517
N5305 X6.958 Y17.519
N5310 X7.063 Y17.517
N5315 X7.168 Y17.511
N5320 X7.274 Y17.5
N5325 X7.381 Y17.485
N5330 X7.489 Y17.465
N5335 X7.597 Y17.441
N5340 X7.706 Y17.412
N5345 X7.816 Y17.379
N5350 X7.927 Y17.342
N5355 X8.039 Y17.3
N5360 X8.152 Y17.254
N5365 X8.266 Y17.204
N5370 X8.45 Y17.116
N5375 X8.621 Y17.025
N5380 X8.782 Y16.93
N5385 X8.931 Y16.831
N5390 X9.069 Y16.727
N5395 X9.197 Y16.616
N5400 X9.314 Y16.497
N5405 X9.422 Y16.37
N5410 X9.521 Y16.234
N5415 X9.61 Y16.087
N5420 X9.691 Y15.929
N5425 X9.764 Y15.759
N5430 X9.829 Y15.576
N5435 X9.886 Y15.378
N5440 X9.936 Y15.166
N5445 X9.98 Y14.937
N5450 X10.017 Y14.691
N5455 X10.048 Y14.427
N5460 X10.074 Y14.144
N5465 X10.094 Y13.841
N5470 X10.11 Y13.517
N5475 X10.12 Y13.172
N5480 X10.127 Y12.804
N5485 X10.13 Y12.411
N5490 X10.128 Y12.153
N5495 X10.125 Y11.896
N5500 X10.121 Y11.639
N5505 X10.117 Y11.383
N5510 X10.113 Y11.127
N5515 X10.108 Y10.872
N5520 X10.102 Y10.617
N5525 X10.096 Y10.362
N5530 X10.09 Y10.108
N5535 X10.083 Y9.853
N5540 X10.076 Y9.599
N5545 X10.069 Y9.344
N5550 X10.061 Y9.09
N5555 X10.053 Y8.835
N5560 X10.044 Y8.58
N5565 X10.035 Y8.325
N5570 X10.026 Y8.069
N5575 X10.016 Y7.813
N5580 X10.007 Y7.556
N5585 X9.996 Y7.299
N5590 X9.986 Y7.041
N5595 X9.975 Y6.783
N5600 X9.964 Y6.523
N5605 X9.952 Y6.263
N5610 X9.903 Y6.102
N5615 X9.848 Y5.945
N5620 X9.786 Y5.794
N5625 X9.717 Y5.648
N5630 X9.641 Y5.507
N5635 X9.56 Y5.372
N5640 X9.472 Y5.242
N5645 X9.378 Y5.117
N5650 X9.278 Y4.998
N5655 X9.172 Y4.885
N5660 X9.06 Y4.777
N5665 X8.942 Y4.675
N5670 X8.818 Y4.579
N5675 X8.689 Y4.489
N5680 X8.554 Y4.405
N5685 X8.414 Y4.327
N5690 X8.268 Y4.255
N5695 X8.117 Y4.189
N5700 X7.961 Y4.13
N5705 X7.8 Y4.077
N5710 X7.634 Y4.03
N5715 X7.463 Y3.99
N5720 X7.287 Y3.957
N5725 X7.106 Y3.93
N5730 X6.911 Y3.897
N5735 X6.727 Y3.851
N5740 X6.555 Y3.793
N5745 X6.395 Y3.722
N5750 X6.248 Y3.641
N5755 X6.113 Y3.551
N5760 X5.992 Y3.451
N5765 X5.884 Y3.342
N5770 X5.79 Y3.226
N5775 X5.709 Y3.104
N5780 X5.643 Y2.976
N5785 X5.591 Y2.843
N5790 X5.554 Y2.706
N5795 X5.532 Y2.565
N5800 X5.526 Y2.422
N5805 X5.534 Y2.278
N5810 X5.559 Y2.133
N5815 X5.6 Y1.988
N5820 X5.657 Y1.844
N5825 X5.731 Y1.701
N5830 X5.822 Y1.562
N5835 X5.93 Y1.426
N5840 X6.055 Y1.294
N5845 X6.199 Y1.167
N5850 X6.224 Y1.148
N5855 X6.252 Y1.13
N5860 X6.283 Y1.114
N5865 X6.317 Y1.098
N5870 X6.353 Y1.084
N5875 X6.391 Y1.07
N5880 X6.433 Y1.058
N5885 X6.477 Y1.047
N5890 X6.525 Y1.038
N5895 X6.575 Y1.029
N5900 X6.628 Y1.021
N5905 X6.684 Y1.015
N5910 X6.742 Y1.01
N5915 X6.804 Y1.006
N5920 X6.869 Y1.003
N5925 X6.937 Y1.001
N5930 X7.008 Y1.
N5935 X7.082
N5940 X7.159 Y1.002
N5945 X7.24 Y1.004
N5950 X7.323 Y1.008
N5955 X7.41 Y1.013
N5960 X7.5 Y1.019
N5965 X7.594 Y1.026
N5970 X7.854 Y1.053
N5975 X8.112 Y1.093
N5980 X8.368 Y1.144
N5985 X8.621 Y1.207
N5990 X8.871 Y1.282
N5995 X9.118 Y1.367
N6000 X9.361 Y1.464
N6005 X9.6 Y1.571
N6010 X9.834 Y1.688
N6015 X10.063 Y1.815
N6020 X10.287 Y1.952
N6025 X10.505 Y2.099
N6030 X10.716 Y2.254
N6035 X10.921 Y2.418
N6040 X11.119 Y2.591
N6045 X11.31 Y2.773
N6050 X11.492 Y2.962
N6055 X11.667 Y3.159
N6060 X11.832 Y3.363
N6065 X11.989 Y3.575
N6070 X12.136 Y3.793
N6075 X12.274 Y4.018
N6080 X12.401 Y4.25
N6085 X12.518 Y4.487
N6090 X12.562 Y4.585
N6095 X12.603 Y4.679
N6100 X12.64 Y4.772
N6105 X12.674 Y4.868
N6110 X12.705 Y4.967
N6115 X12.733 Y5.073
N6120 X12.759 Y5.187
N6125 X12.781 Y5.313
N6130 X12.801 Y5.452
N6135 X12.819 Y5.607
N6140 X12.835 Y5.78
N6145 X12.848 Y5.973
N6150 X12.86 Y6.19
N6155 X12.87 Y6.432
N6160 X12.878 Y6.701
N6165 X12.885 Y7.001
N6170 X12.89 Y7.333
N6175 X12.895 Y7.7
N6180 X12.898 Y8.103
N6185 X12.9 Y8.547
N6190 X12.902 Y9.032
N6195 X12.903 Y9.561
N6200 Y10.136
N6205 Y10.761
N6210 Y15.82
N6215 G0 Z5.
N6220 X60.455 Y23.199
N6225 G1 Z1. F150.
N6230 Z-0.2
N6235 Y23.223 F300.
N6240 X60.459 Y23.372
N6245 X60.474 Y23.519
N6250 X60.497 Y23.661
N6255 X60.529 Y23.801
N6260 X60.57 Y23.936
N6265 X60.619 Y24.066
N6270 X60.676 Y24.192
N6275 X60.74 Y24.314
N6280 X60.812 Y24.43
N6285 X60.892 Y24.54
N6290 X60.978 Y24.645
N6295 X61.07 Y24.744
N6300 X61.169 Y24.837
N6305 X61.274 Y24.923
N6310 X61.385 Y25.002
N6315 X61.501 Y25.074
N6320 X61.622 Y25.138
N6325 X61.748 Y25.195
N6330 X61.879 Y25.244
N6335 X62.014 Y25.285
N6340 X62.153 Y25.317
N6345 X62.296 Y25.34
N6350 X62.442 Y25.354
N6355 X62.591 Y25.359
N6360 X62.741 Y25.354
N6365 X62.887 Y25.34
N6370 X63.03 Y25.317
N6375 X63.169 Y25.285
N6380 X63.304 Y25.244
N6385 X63.435 Y25.195
N6390 X63.561 Y25.138
N6395 X63.682 Y25.074
N6400 X63.798 Y25.002
N6405 X63.909 Y24.923
N6410 X64.013 Y24.837
N6415 X64.112 Y24.744
N6420 X64.205 Y24.645
N6425 X64.291 Y24.54
N6430 X64.37 Y24.43
N6435 X64.442 Y24.314
N6440 X64.507 Y24.192
N6445 X64.564 Y24.066
N6450 X64.613 Y23.936
N6455 X64.653 Y23.801
N6460 X64.685 Y23.661
N6465 X64.709 Y23.519
N6470 X64.723 Y23.372
N6475 X64.728 Y23.223
N6480 X64.727 Y17.485
N6485 Y13.271
N6490 X64.738 Y12.936
N6495 X64.772 Y12.608
N6500 X64.827 Y12.285
N6505 X64.903 Y11.97
N6510 X64.999 Y11.663
N6515 X65.115 Y11.365
N6520 X65.249 Y11.076
N6525 X65.401 Y10.798
N6530 X65.57 Y10.53
N6535 X65.755 Y10.275
N6540 X65.956 Y10.032
N6545 X66.172 Y9.802
N6550 X66.402 Y9.586
N6555 X66.645 Y9.386
N6560 X66.9 Y9.2
N6565 X67.168 Y9.031
N6570 X67.446 Y8.879
N6575 X67.735 Y8.745
N6580 X68.033 Y8.63
N6585 X68.34 Y8.533
N6590 X68.655 Y8.457
N6595 X68.977 Y8.402
N6600 X69.306 Y8.368
N6605 X69.641 Y8.357
N6610 X69.976 Y8.368
N6615 X70.304 Y8.402
N6620 X70.627 Y8.457
N6625 X70.942 Y8.533
N6630 X71.249 Y8.63
N6635 X71.547 Y8.745
N6640 X71.836 Y8.879
N6645 X72.114 Y9.031
N6650 X72.382 Y9.2
N6655 X72.637 Y9.386
N6660 X72.88 Y9.586
N6665 X73.11 Y9.802
N6670 X73.326 Y10.032
N6675 X73.527 Y10.275
N6680 X73.712 Y10.53
N6685 X73.881 Y10.798
N6690 X74.033 Y11.076
N6695 X74.167 Y11.365
N6700 X74.283 Y11.663
N6705 X74.379 Y11.97
N6710 X74.455 Y12.285
N6715 X74.51 Y12.608
N6720 X74.544 Y12.936
N6725 X74.555 Y13.271
N6730 Y28.085
N6735 X71.778
N6740 Y13.271
N6745 X71.773 Y13.122
N6750 X71.759 Y12.976
N6755 X71.735 Y12.833
N6760 X71.703 Y12.694
N6765 X71.662 Y12.559
N6770 X71.614 Y12.428
N6775 X71.557 Y12.302
N6780 X71.492 Y12.181
N6785 X71.42 Y12.065
N6790 X71.341 Y11.954
N6795 X71.255 Y11.849
N6800 X71.162 Y11.75
N6805 X71.063 Y11.658
N6810 X70.958 Y11.572
N6815 X70.848 Y11.492
N6820 X70.732 Y11.42
N6825 X70.61 Y11.356
N6830 X70.484 Y11.299
N6835 X70.354 Y11.25
N6840 X70.218 Y11.209
N6845 X70.079 Y11.177
N6850 X69.937 Y11.154
N6855 X69.79 Y11.14
N6860 X69.641 Y11.135
N6865 X69.492 Y11.14
N6870 X69.345 Y11.154
N6875 X69.202 Y11.177
N6880 X69.063 Y11.209
N6885 X68.928 Y11.25
N6890 X68.798 Y11.299
N6895 X68.672 Y11.356
N6900 X68.55 Y11.42
N6905 X68.434 Y11.492
N6910 X68.324 Y11.572
N6915 X68.219 Y11.658
N6920 X68.12 Y11.75
N6925 X68.027 Y11.849
N6930 X67.941 Y11.954
N6935 X67.862 Y12.065
N6940 X67.79 Y12.181
N6945 X67.726 Y12.302
N6950 X67.669 Y12.428
N6955 X67.62 Y12.559
N6960 X67.579 Y12.694
N6965 X67.547 Y12.833
N6970 X67.524 Y12.976
N6975 X67.509 Y13.122
N6980 X67.505 Y13.271
N6985 Y17.485
N6990 X67.506 Y23.223
N6995 X67.494 Y23.558
N7000 X67.461 Y23.886
N7005 X67.405 Y24.209
N7010 X67.329 Y24.524
N7015 X67.233 Y24.831
N7020 X67.117 Y25.129
N7025 X66.983 Y25.418
N7030 X66.831 Y25.696
N7035 X66.662 Y25.964
N7040 X66.477 Y26.219
N7045 X66.276 Y26.462
N7050 X66.061 Y26.692
N7055 X65.831 Y26.908
N7060 X65.588 Y27.109
N7065 X65.332 Y27.294
N7070 X65.065 Y27.463
N7075 X64.786 Y27.615
N7080 X64.498 Y27.749
N7085 X64.199 Y27.864
N7090 X63.892 Y27.961
N7095 X63.577 Y28.037
N7100 X63.255 Y28.092
N7105 X62.926 Y28.126
N7110 X62.591 Y28.137
N7115 X62.257 Y28.126
N7120 X61.928 Y28.092
N7125 X61.605 Y28.037
N7130 X61.29 Y27.961
N7135 X60.983 Y27.864
N7140 X60.685 Y27.749
N7145 X60.396 Y27.615
N7150 X60.118 Y27.463
N7155 X59.851 Y27.294
N7160 X59.595 Y27.109
N7165 X59.352 Y26.908
N7170 X59.122 Y26.692
N7175 X58.907 Y26.462
N7180 X58.706 Y26.219
N7185 X58.52 Y25.964
N7190 X58.351 Y25.696
N7195 X58.2 Y25.418
N7200 X58.065 Y25.129
N7205 X57.95 Y24.831
N7210 X57.854 Y24.524
N7215 X57.777 Y24.209
N7220 X57.722 Y23.886
N7225 X57.688 Y23.558
N7230 X57.677 Y23.223
N7235 Y8.409
N7240 X60.455
N7245 Y23.199
N7250 G0 Z5.
N7255 X84.434 Y19.261
N7260 G1 Z1. F150.
N7265 Z-0.2
N7270 Y19.342 F300.
N7275 X84.42 Y19.748
N7280 X84.381 Y20.145
N7285 X84.316 Y20.534
N7290 X84.227 Y20.913
N7295 X84.114 Y21.282
N7300 X83.978 Y21.64
N7305 X83.819 Y21.985
N7310 X83.64 Y22.318
N7315 X83.441 Y22.637
N7320 X83.222 Y22.941
N7325 X82.984 Y23.23
N7330 X82.728 Y23.503
N7335 X82.455 Y23.758
N7340 X82.166 Y23.996
N7345 X81.862 Y24.215
N7350 X81.543 Y24.415
N7355 X81.211 Y24.594
N7360 X80.865 Y24.752
N7365 X80.507 Y24.888
N7370 X80.139 Y25.001
N7375 X79.759 Y25.09
N7380 X79.37 Y25.155
N7385 X78.973 Y25.195
N7390 X78.567 Y25.208
N7395 X75.322
N7400 Y27.986
N7405 X78.567
N7410 X78.864 Y27.981
N7415 X79.158 Y27.966
N7420 X79.738 Y27.907
N7425 X80.307 Y27.81
N7430 X80.862 Y27.677
N7435 X81.403 Y27.508
N7440 X81.928 Y27.306
N7445 X82.436 Y27.071
N7450 X82.926 Y26.804
N7455 X83.396 Y26.508
N7460 X83.846 Y26.182
N7465 X84.273 Y25.83
N7470 X84.676 Y25.451
N7475 X85.055 Y25.047
N7480 X85.408 Y24.62
N7485 X85.733 Y24.171
N7490 X86.03 Y23.701
N7495 X86.296 Y23.211
N7500 X86.531 Y22.703
N7505 X86.734 Y22.178
N7510 X86.903 Y21.637
N7515 X87.036 Y21.082
N7520 X87.133 Y20.513
N7525 X87.192 Y19.933
N7530 X87.207 Y19.639
N7535 X87.212 Y19.342
N7540 Y17.051
N7545 X87.207 Y16.754
N7550 X87.192 Y16.46
N7555 X87.133 Y15.88
N7560 X87.036 Y15.311
N7565 X86.903 Y14.756
N7570 X86.734 Y14.215
N7575 X86.531 Y13.69
N7580 X86.296 Y13.182
N7585 X86.03 Y12.692
N7590 X85.733 Y12.222
N7595 X85.408 Y11.773
N7600 X85.055 Y11.346
N7605 X84.676 Y10.942
N7610 X84.273 Y10.564
N7615 X83.846 Y10.211
N7620 X83.396 Y9.886
N7625 X82.926 Y9.59
N7630 X82.436 Y9.323
N7635 X81.928 Y9.088
N7640 X81.403 Y8.886
N7645 X80.862 Y8.717
N7650 X80.307 Y8.584
N7655 X79.738 Y8.487
N7660 X79.158 Y8.428
N7665 X78.864 Y8.413
N7670 X78.567 Y8.408
N7675 X75.828
N7680 X74.347 Y9.797
N7685 X75.828 Y11.186
N7690 X78.567
N7695 X78.973 Y11.199
N7700 X79.37 Y11.239
N7705 X79.759 Y11.303
N7710 X80.139 Y11.393
N7715 X80.507 Y11.506
N7720 X80.865 Y11.642
N7725 X81.211 Y11.8
N7730 X81.543 Y11.979
N7735 X81.862 Y12.178
N7740 X82.166 Y12.397
N7745 X82.455 Y12.635
N7750 X82.728 Y12.891
N7755 X82.984 Y13.163
N7760 X83.222 Y13.452
N7765 X83.441 Y13.756
N7770 X83.64 Y14.075
N7775 X83.819 Y14.408
N7780 X83.978 Y14.753
N7785 X84.114 Y15.111
N7790 X84.227 Y15.479
N7795 X84.316 Y15.859
N7800 X84.381 Y16.247
N7805 X84.42 Y16.645
N7810 X84.434 Y17.051
N7815 Y19.261
N7820 G0 Z15.
N7825 M9
N7835 M30
%
